X:1
T:Through ye Wood Laddy. SenH.126
T:Through ye Wood Laddy. SenH.126
T:in Hand C
C:in Hand C
L:1/8
Q:1/4=100
M:3/4
K:C
V:1 treble 
V:1
 BF | G2 B2- Bc | d4 (bc') | (d'c')(bgfd) | c4 (Bc) | d2 dedc | d2 (cBBc) | dcdfgf | d2 (cB)BF | %9
 G2 B2- Bc | d4 (bc') | (d'c')(bgfd) | (c2 cd) ef | g2 b2 fd | f2 gfTdc | (d2 G2 Bc) | [Bd]4 || %17
 bf | g2 b2 (c'b/c'/) | d'4 bc' | d'2 (e'd')(c'b) | c'4 bc' | d'2- d'e'd'c' | d'2 (c'b)bc' | %24
 d'c'd'e'Td'c' | d'2 (c'b)(gf) | g2 b2 (c'b/c'/) | d'4 (bc') | (d'c')(bgTfd) | cBcdef | gb Tf2 d2 | %31
 f2 gf dc | d2 (G2 B)c | B4 |] %34

